X: 1
T: What you please
%%VWML:Skillerns1780-2277i-p1-0
F:http://www.vwml.org/record/Skillerns1780/2277i/p1
%R: jig
B: "Twenty Four Country Dances for the Year 1780", Thomas Skillern, ed. p.1 #1
F: http://www.vwml.org/browse/browse-collections-dance-tune-books/browse-skillerns1780#
Z: 2014 John Chambers <jc:trillian.mit.edu>
M: 6/8
L: 1/8
K: D
(A/G/) |\
FAA Add | cee e2(f/g/) | aff fdd | cee e2(A/G/) |\
FAA Add | cee e2(f/g/) | afd gec | ddd d2 :|
|: (f/g/) |\
afd afd | cAA A2(f/g/) | afd afd | bee e2 (f/g/) |\
afd afd | cAA g2e | fad gec | ddd d2 :|
W:
W:First and 2d Cu Set change sides & Right hands across .|.
W:the same back again & Left hands across :|. lead down the
W:middle up again and cast off .|: Hands 4 at bottom
W:Right and Left at top :|:
%%endtext
T: Hackney Assembly
%R: reel
B: "Twenty Four Country Dances for the Year 1780", Thomas Skillern, ed. p.1 #2
F: http://www.vwml.org/browse/browse-collections-dance-tune-books/browse-skillerns1780#
Z: 2014 John Chambers <jc:trillian.mit.edu>
M: C|
L: 1/8
K: F
F |\
AcAF Acfd | c>dcA G3F |\
AcAF Acfd | c>dcA F3 :|
|: c |\
f>gac f>gac | d>efA G3F |\
A>BcF Acfd | c>dcA F3 :|
W:
W:Right hands four across .|. Left hands
W:back again :|. Lead down one Cu: up
W:again and cst off .|: Right and Left
W:at top :|:

